X:1
T:Title
%%score { ( 1 3 ) | ( 2 4 ) }
L:1/8
M:4/4
K:Ab
V:1 treble nm="Grand Piano"
V:3 treble 
V:2 bass 
V:4 bass 
V:1
 z4 z2[Q:1/4=100] E2 | [CA]4 [DA]4 | [CA]6 A2 | B2 B2 c2 c2 | e2 d2 c2 c2 | F4 G4 | A4 z4 | %7
 z4 z2 =D2 | E4 E2 E2 | [Ec]2 [EB]2 [A,EA]2 [A,CE]2 | [A,EG]4 [A,DF]2 F2 | %11
 [Fd]2 [Fc]2 [FB]2 [DF]2 | z4 z2 B2[K:bass] | [Ee]2 [_Ge]2 [Fe]2 [Fc]2 | [Fd]4 [Fc]2 F2 | A6 z2 | %16
 [A,CA]4 z2 C2 | D4 E2 D2 | C4 _C4 |[M:3/4] C6 |] %20
V:2
 z4 z2 E,2 | [A,,E,]4 [D,F,]4 | [A,,A,]6 [A,CE]2 | [G,DE]2 [G,DE]2 [A,CE]2 [A,CE]2 | %4
 [G,B,E]4 [A,E]2 [A,E]2 | [A,B,=D]4 [G,B,E]4 | E2 z2 z4 | A,,2 A,,2 [B,,G,B,]2 .[B,,F,B,]2 | %8
 [E,A,B,]4 [E,G,B,]2 E,2 | [A,,A,]2 [B,,G,]2 C,2 A,,2 | D,4 D,2 F,2 | %11
 [B,,B,]2 [C,=A,]2 [D,B,]2 [B,,B,]2 | [E,B,]4 [E,B,E]2 .[E,G,E]2 | %13
 [C,A,]2 [C,=A,]2 [F,A,]2 [F,A,]2 | [B,,B,]4 [C,=A,]2 [D,B,]2 | [CE]4 B,4 | A,,4 z2 [A,,E,A,]2 | %17
 [D,F,A,]4 [D,_G,A,]2 [D,F,A,]2 | E,4 z4 |[M:3/4] [A,,E,A,]6 |] %20
V:3
 x8 | x8 | x8 | x8 | x8 | x8 | z2 =D2 [B,EG]4 | [B,CG]2 [A,CF]2 E2 z A, | x8 | x8 | x8 | x8 | %12
 [FA]4 G2 z[K:bass] D, | x8 | x8 | z4 D4 | x8 | x8 | x8 |[M:3/4] x6 |] %20
V:4
 x8 | x8 | x8 | x8 | x8 | x8 | [F,B,]4 E,4 | x8 | x8 | x8 | x8 | x8 | x8 | x8 | x8 | E,6- [E,G]2 | %16
 x8 | x8 | [A,,A,]4- [A,,=D,A,]4 |[M:3/4] x6 |] %20

